!!!OTL: Lobgesang.
!!!OTL-incipit: ALLES WAS ODEM HAT
!!!COM: Fr. Reichardt
!!!ARE: Europa, Mitteleuropa, Deutschland
!!!SCT: F1010
!!!TXL: @@DE
!!!YEM: Copyright 1995, estate of Helmut Schaffrath.
**kern	**text
*ICvox	*
*clefG2	*
*M3/4	*
*k[f#c#g#]	*
*A:	*
=1	=1
!LO:TX:a:t=Feierlich und lebhaft, aber nicht ʒu geſchwind.	!
!LO:TX:a:t=P:only the highest voice encoded:problem	!
{4a	1._Al-
4a	-les,
4a	was
=2	=2
4.ee	O-
8dd	-dem
4cc#}	hat,
=3	=3
{4b/	lo-
4a	-be
4b/	den
=4	=4
2.cc#}	Herrn!
=5	=5
{4cc#/	Andacht
4cc#/	.
4cc#/	und
=6	=6
4.dd/	hei-
8dd/	-li-
4dd/}	-ge
=7	=7
{4ee	Wonne
4ee	.
4ee	durchdrin-
=8	=8
2ff#	.
4dd}	-ge
=9	=9
{2ee/	un-
4ee/	-ſer
=10	=10
(>4.ee/	Al-
8dd/)	.
4cc#/}	-ler
=11	=11
{2b/	See-
4b/	-le
=12	=12
2.cc#/}	ganʒ.
==	==
!!!AGN: Erbauungs - Lied, religioes, Lob
!!!ONB: ESAC (Essen Associative Code) Database: FINK
!!!AMT: simple triple
!!!AIN: vox
!!!EED: Helmut Schaffrath
!!!EEV: 1.0
!!Text: S. G. Buerde
!!!RDF**kern: > = above
!!!GTL: Erbauungslieder
!!!source: Musikalischer Hausschatz der Deutschen. Eine Sammlung von über 1000 Liedern und Gesängen mit Singstimmen und Klavierbegleitung. Leipzig, Litterarisches Verlags-Haus.
!!!page: 764
!!!URL-scan: https://www.digitale-sammlungen.de/en/view/bsb11144622?page=644
!!!ENC: Anna Maria Matuszewska
!!!EEV: 2024/09/08
*-	*-